assets/icons/copy.svg

<svg width="17" height="16" viewBox="0 0 17 16" fill="none" xmlns="http://www.w3.org/2000/svg">
<path fill-rule="evenodd" clip-rule="evenodd" d="M4.51057 4.79998H4.09998C2.99541 4.79998 2.09998 5.69541 2.09998 6.79998V12.4C2.09998 13.5045 2.99541 14.4 4.09998 14.4H9.69998C10.8045 14.4 11.7 13.5045 11.7 12.4V12H10.7V12.4C10.7 12.9523 10.2523 13.4 9.69998 13.4H4.09998C3.54769 13.4 3.09998 12.9523 3.09998 12.4V6.79998C3.09998 6.24769 3.54769 5.79998 4.09998 5.79998H4.51057V4.79998Z" fill="#485FC7"/>
<path fill-rule="evenodd" clip-rule="evenodd" d="M12.9 2.59998H7.29998C6.74769 2.59998 6.29998 3.04769 6.29998 3.59998V9.19998C6.29998 9.75226 6.74769 10.2 7.29998 10.2H12.9C13.4523 10.2 13.9 9.75226 13.9 9.19998V3.59998C13.9 3.04769 13.4523 2.59998 12.9 2.59998ZM7.29998 1.59998C6.19541 1.59998 5.29998 2.49541 5.29998 3.59998V9.19998C5.29998 10.3045 6.19541 11.2 7.29998 11.2H12.9C14.0045 11.2 14.9 10.3045 14.9 9.19998V3.59998C14.9 2.49541 14.0045 1.59998 12.9 1.59998H7.29998Z" fill="#485FC7"/>
</svg>

<svg width="17" height="16" fill="none" xmlns="http://www.w3.org/2000/svg"><path fill-rule="evenodd" clip-rule="evenodd" d="M4.51 4.8H4.1a2 2 0 0 0-2 2v5.6a2 2 0 0 0 2 2h5.6a2 2 0 0 0 2-2V12h-1v.4a1 1 0 0 1-1 1H4.1a1 1 0 0 1-1-1V6.8a1 1 0 0 1 1-1h.41v-1Z" fill="#485FC7"/><path fill-rule="evenodd" clip-rule="evenodd" d="M12.9 2.6H7.3a1 1 0 0 0-1 1v5.6a1 1 0 0 0 1 1h5.6a1 1 0 0 0 1-1V3.6a1 1 0 0 0-1-1Zm-5.6-1a2 2 0 0 0-2 2v5.6a2 2 0 0 0 2 2h5.6a2 2 0 0 0 2-2V3.6a2 2 0 0 0-2-2H7.3Z" fill="#485FC7"/></svg>
